!!!!SEGMENT: Jos/Jos0901c-Missa_Malheur_me_bat-Credo.krn	
!!!COM: Josquin des Prez	
!!!CDT: ~1450-1521/08/27	
!!!OPR: Missa Malheur me bat	
!!!ONM: 3	
!!!OTL: Credo	
!!!AGN: Mass; Credo	
!!!SCT: NJE 9.1	
!!!SCA: New Josquin Edition 9.1	
!!!jrpid: Jos0901c	
!!!voices: 4	
!!!voices-OPR: 4(-6)	
**kern	**text
*staff4	*
*Ivox	*
*I"Bassus	*
*I'B	*
*>[A,B,C]	*
*>Patrem[A]	*
*>Incarnatus[B]	*
*>Sanctum[C]	*
*clefF4	*
*>A	*
*clefF4	*
*k[]	*
*M2/1	*
*met(C|)	*
!!primary-mensuration: met(C|)	
*	*
=1-	=1-
!!section: Patrem	
!!!OMD: Patrem	
!	!
!	!
0r	.
.	.
=2	=2
0r	.
.	.
.	.
=3	=3
!	!
0r	.
.	.
.	.
.	.
=4	=4
0r	.
.	.
.	.
=5	=5
!	!
1.E	Pa-
.	.
.	.
2F\	.
=6	=6
2G\	.
2E\	.
1A	.
=7	=7
1G	-trem
.	.
[1E	om-
.	.
=8	=8
2E\]	.
2F\	.
2G\	.
2E\	.
=9	=9
1A	-ni-
[1AA	-po-
.	.
.	.
=10	=10
2AA/]	.
2BB/	.
.	.
2C/	-ten-
2AA/	.
=11	=11
0E	-tem
.	.
.	.
.	.
.	.
.	.
=12	=12
0r	.
.	.
.	.
.	.
.	.
.	.
=13	=13
0r	.
.	.
.	.
.	.
.	.
.	.
=14	=14
0r	.
.	.
.	.
.	.
.	.
.	.
=15	=15
1.E	vi-
.	.
.	.
2F\	-si-
=16	=16
2G\	-bi-
2G\	-li-
1A	-um
.	.
=17	=17
2G\	om-
2F\	-ni-
1E	-um
.	.
=18	=18
1D	.
[1A	et
.	.
=19	=19
2A\]	.
2F\	in-
!	!
2G\	-vi-
2A\	-si-
=20	=20
1E	-bi-
.	.
.	.
1F	-li-
.	.
=21	=21
0E	-um.
.	.
.	.
=22	=22
1r	.
.	.
1E	Et
.	.
=23	=23
*	*
*	*
*	*
1F	in
.	.
2E\	u-
2F\	-num
=24	=24
1G	do-
.	.
1A	-mi-
.	.
=25	=25
4AA/	-num
4BB/	.
4C/	.
4D\	.
2E\	.
[2G\	Je-
=26	=26
4G\]	.
4F\	.
2D\	-sum
1E	Chri-
=27	=27
1AA	-stum,
.	.
1r	.
.	.
.	.
=28	=28
0E	fi-
.	.
.	.
.	.
.	.
.	.
.	.
.	.
=29	=29
0F	.
.	.
.	.
.	.
=30	=30
1E	-li-
.	.
.	.
1E	-um
.	.
=31	=31
1E	de-
.	.
.	.
2D\	-i
2C/	u-
=32	=32
2D\	-ni-
2E\	-ge-
1F	-ni-
.	.
=33	=33
0E	-tum.
.	.
.	.
.	.
=34	=34
*	*
*	*
*	*
2r	.
2E\	Et
2G\	ex
2G\	pa-
.	.
=35	=35
1E	-tre
.	.
.	.
2r	.
[2G\	na-
=36	=36
2G\]	.
4F\	.
4E\	.
1F	.
.	.
=37	=37
2G\	-tum
2GG/	an-
.	.
2GG/	-te
[2G\	om-
=38	=38
2G\]	.
4F\	.
4E\	.
1F	.
=39	=39
2G\	.
2GG/	-ni-
2GG/	-a
[2G\	se-
=40	=40
2G\]	.
4F\	.
4E\	.
1D	-cu-
=41	=41
1GG	-la.
.	.
2r	.
2G\	De-
=42	=42
*	*
*	*
*	*
2G\	-um
1G	de
.	.
4F\	.
4E\	.
=43	=43
1F	de-
2G\	-o,
2GG/	lu-
=44	=44
2AA/	-men
2AA/	de
2GG/	lu-
2GG/	-mi-
.	.
=45	=45
1C	-ne,
.	.
.	.
2r	.
2GG/	de-
=46	=46
*	*
*	*
*	*
2.C/	-um
.	.
.	.
4D\	.
1E	ve-
.	.
=47	=47
1D	-rum
.	.
2r	.
.	.
2GG/	de
.	.
=48	=48
2GG/	de-
2GG/	-o
1AA	ve-
.	.
=49	=49
1GG	-ro
2r	.
[2C/	de
.	.
=50	=50
4C/]	.
4D\	.
4E\	.
4F\	.
2G\	.
2A\	.
=51	=51
2B\	de-
2c\	.
2G\	.
2A\	.
=52	=52
2E\	-o
1G	ve-
.	.
.	.
4F\	.
4E\	.
=53	=53
1D	.
1C	-ro.
.	.
=54	=54
1r	.
.	.
!	!
2.E\	Ge-
4F\	-ni-
=55	=55
2G\	-tum,
2E\	non
1A	fac-
=56	=56
1G	-tum,
.	.
!	!
1E	con
.	.
=57	=57
1F	-sub-
.	.
1D	-stan-
=58	=58
1E	-ti-
.	.
!	!
1F	-a-
.	.
=59	=59
2E\	-lem
1A	pa-
.	.
2G#i\	.
=60	=60
1.A	-tri...
.	.
!	!
.	.
4G\	om-
4A\	.
=61	=61
2D\	-ni-
2F\	-a
.	.
2G\	fac-
2A\	-ta
=62	=62
*	*
*	*
*	*
[0E	sunt...
.	.
.	.
=63	=63
0E]	.
.	.
.	.
.	.
=64	=64
0r	.
.	.
.	.
.	.
.	.
.	.
.	.
=65	=65
0r	.
.	.
.	.
.	.
.	.
=66	=66
0r	.
.	.
.	.
.	.
.	.
=67	=67
0r	.
.	.
.	.
.	.
=68	=68
0r	.
.	.
.	.
.	.
.	.
=69	=69
0r	.
.	.
.	.
.	.
.	.
=70	=70
*	*
*	*
*	*
1r	.
1A	Qui
.	.
=71	=71
1D	prop-
.	.
1A	-ter
.	.
=72	=72
2r	.
2E\	nos
!	!
1F	ho-
=73	=73
1F	-mi-
.	.
1E	-nes
=74	=74
1r	.
1A	et
.	.
.	.
=75	=75
1G	prop-
.	.
1G	-ter
.	.
=76	=76
*	*
*	*
*	*
1A	nos-
.	.
2D\	-tram
[2A\	sa-
=77	=77
4A\]	.
4G\	.
2F\	.
1E	-lu-
.	.
.	.
=78	=78
2D\	-tem
2A\	de-
2G\	-scen-
2E\	.
=79	=79
*	*
*	*
*	*
2F\	-dit
2D\	.
!	!
[1A	de
.	.
=80	=80
2A\]	.
.	.
4G\	.
4A\	.
2E\	ce-
2F\	.
=81	=81
!	!
0E	-lis,
.	.
.	.
=82	=82
2r	.
2C/	de-
2.c\	-scen-
.	.
4B\	.
=83	=83
*	*
*	*
*	*
2.A\	-dit
.	.
4G\	de
1F	ce-
.	.
.	.
=84	=84
[0El	-lis.
.	.
=85	=85
0E]	.
!!LO:LB:i:g=z	
=86||	=86||
*>B	*>B
!!section: Et incarnatus est	
!!!OMD: Et incarnatus est	
*M2/1	*
*met(C|)	*
!	!
1c	Et
2G\	in-
2A\	-car-
=87	=87
1E	-na-
2.F\	.
4E\	.
=88	=88
4C/	.
4D\	.
4E\	.
4F\	.
2G\	.
2A\	.
=89	=89
2B\	.
1G	.
.	.
2F\	-tus
.	.
=90	=90
1G	est
.	.
.	.
.	.
1r	.
.	.
=91	=91
0r	.
.	.
.	.
.	.
.	.
=92	=92
1r	.
1E	de
=93	=93
1G	spi-
1G	-ri-
=94	=94
0C	-tu
.	.
=95	=95
0F	sanc-
.	.
=96	=96
1E	-to
2r	.
[2G\	ex
=97	=97
2G\]	.
2G\	Ma-
2G\	-ri-
2A\	-a
.	.
=98	=98
2G\	vir-
1A	.
4G\	-gi-
4F\	.
=99	=99
[0E	-ne:
.	.
.	.
.	.
=100	=100
0E]	.
.	.
.	.
.	.
=101	=101
0r	.
.	.
.	.
.	.
=102	=102
0r	.
.	.
.	.
.	.
=103	=103
1r	.
1E	et
=104	=104
1G	ho-
1C	-mo
=105	=105
1G	fac-
1E	-tus
=106	=106
1.F	est.
.	.
.	.
.	.
2E\	.
=107	=107
1C	.
.	.
.	.
1r	.
.	.
=108	=108
1C	Cru-
.	.
.	.
1G	-ci-
.	.
=109	=109
1E	-fi-
.	.
.	.
1D	-xus...
.	.
.	.
.	.
=110	=110
0r	.
.	.
.	.
.	.
.	.
=111	=111
0r	.
.	.
.	.
.	.
.	.
.	.
=112	=112
0r	.
.	.
.	.
.	.
.	.
.	.
.	.
=113	=113
1E	sub
.	.
1F	.
.	.
=114	=114
2E\	Pon-
2C/	-ti-
1D	-o
.	.
.	.
=115	=115
1E	Pi-
.	.
.	.
2F\	-la-
2D\	.
=116	=116
1E	.
.	.
1D	-to
.	.
=117	=117
1G	pas-
.	.
.	.
1A	.
.	.
=118	=118
2G\	.
2E\	-sus
2F\	et
.	.
2D\	se-
=119	=119
1E	-pul-
.	.
1D	tus
.	.
=120	=120
1GG	est.
.	.
2r	.
2C/	Et
=121	=121
1C	re-
.	.
1D	-sur-
=122	=122
1C	-re-
.	.
1AA	-xit
.	.
=123	=123
2r	.
2E\	ter-
2D\	-ti-
2C/	-a
=124	=124
1BB	di-
.	.
.	.
.	.
2AA/	-e
2A\	se-
=125	=125
2G\	-cun-
2E\	.
2F\	-dum
2D\	scrip-
=126	=126
1E	-tu-
.	.
.	.
.	.
1D	.
.	.
=127	=127
1GG	-ras.
.	.
2r	.
2G\	Et
.	.
=128	=128
2.E\	a-
.	.
.	.
4F\	.
2G\	-scen-
.	.
2C/	-dit
.	.
=129	=129
2E\	in
.	.
2F\	.
1D	ce-
.	.
.	.
=130	=130
1C	-lum;
.	.
.	.
.	.
1r	.
.	.
.	.
=131	=131
1r	.
.	.
.	.
2r	.
2G\	se-
=132	=132
2E\	-det
2F\	ad
2G\	dex-
2C/	-te-
=133	=133
2E\	-ram
2F\	.
*	*
*	*
1D	pa-
.	.
.	.
.	.
.	.
=134	=134
*	*
*	*
1C	-tris.
.	.
.	.
.	.
1r	.
.	.
=135	=135
0r	.
.	.
.	.
.	.
=136	=136
0r	.
.	.
.	.
.	.
.	.
.	.
=137	=137
2r	.
2C/	Et
2.C/	i-
.	.
4C/	-te-
=138	=138
1G	-rum,
.	.
.	.
2r	.
2C/	et
=139	=139
2.C/	i-
.	.
.	.
4C/	-te-
1G	-rum
.	.
.	.
=140	=140
2r	.
.	.
2G\	ven-
.	.
2G\	-tu-
2G\	-rus
=141	=141
1.c	est
.	.
.	.
.	.
2F\	cum
=142	=142
2.c\	glo-
.	.
4B\	.
1A	-ri-
.	.
.	.
=143	=143
2G\	-a
2G\	ju-
1A	-di-
.	.
=144	=144
1A	-ca-
.	.
.	.
1G	-re,
.	.
.	.
=145	=145
2r	.
.	.
2G\	vi-
.	.
2G\	-vos
2G\	et
=146	=146
1A	mor-
.	.
.	.
1G	-tu-
.	.
=147	=147
2C/	-os;
2c\	cu-
2B\	-jus
2G\	.
=148	=148
1A	re-
.	.
.	.
2G\	.
2E\	.
=149	=149
1F	.
.	.
.	.
2E\	.
2C/	.
=150	=150
1D	-gni
.	.
.	.
2C/	non
[2D\	e-
=151	=151
2D\]	.
.	.
2C/	.
1D	-rit
.	.
=152	=152
1.AA	fi-
.	.
2BB/	.
=153	=153
1C	.
.	.
1AA	.
=154	=154
0El	-nis.
!!LO:LB:i:g=z	
=155||	=155||
*>C	*>C
!!section: Et in spiritum sanctum	
!!!OMD: Et in spiritum sanctum	
*M2/1	*
*met(C|)	*
2r	.
1A	Et
.	.
2A\	in
=156	=156
2G\	spi-
2F\	-ri-
1E	-tum
=157	=157
2r	.
1A	sanc-
.	.
2A\	-tum
=158	=158
2G\	do-
2F\	-mi-
1E	-num
=159	=159
2r	.
2A\	et
2A\	vi-
2A\	-fi-
=160	=160
2.G\	-fi-
.	.
4F\	.
1E	-can-
.	.
.	.
.	.
=161	=161
1D	-tem;
2r	.
2D\	qui
=162	=162
2E\	ex
2F\	pa-
.	.
1G	-tre
.	.
=163	=163
2r	.
.	.
2E\	fi-
2F\	-li-
2G\	-o-
=164	=164
2A\	-que
2E\	pro-
1F	-ce-
.	.
=165	=165
2E\	-dit.
2A\	Qui
2A\	cum
2A\	pa-
=166	=166
1G	-tre
.	.
2r	.
.	.
2E\	et
.	.
=167	=167
1F	fi-
.	.
1G	-li-
.	.
=168	=168
1A	-o
.	.
2r	.
2E\	si-
=169	=169
2E\	-mul
2F\	ad-
1G	-o-
=170	=170
1A	-ra-
.	.
.	.
.	.
2.E\	-tur,
.	.
4F\	.
=171	=171
2G\	si-
2A\	-mul
2.E\	ad-
.	.
4F\	-o-
=172	=172
2G\	-ra-
2A\	.
.	.
1D	-tur
.	.
.	.
.	.
=173	=173
2.E\	et
.	.
4F\	.
2G\	.
2A\	con-
=174	=174
2.E\	-glo-
.	.
.	.
4F\	.
2G\	.
2A\	-ri-
=175	=175
2G\	-fi-
1A	-ca-
.	.
.	.
2D\	.
=176	=176
1A	.
.	.
.	.
1G	.
.	.
=177	=177
1A	-tur;
.	.
1D	.
.	.
.	.
=178	=178
1.A	qui
.	.
.	.
2A\	lo-
=179	=179
2A\	-cu-
2A\	-tus
1E	est
.	.
.	.
=180	=180
1F	per
.	.
1G	pro-
=181	=181
2.A\	-phe-
.	.
4G\	.
1F	.
.	.
.	.
.	.
=182	=182
1E	-tas.
.	.
2r	.
2E\	Et
=183	=183
2G\	u-
2G\	-nam
.	.
2.G\	sanc-
.	.
4E\	.
=184	=184
1E	-tam
.	.
2r	.
2E\	ca-
=185	=185
2G\	-tho-
2G\	-li-
2E\	-cam
2G\	et
=186	=186
2F\	a-
2D\	-pos-
.	.
2A\	-to-
2F\	-li-
=187	=187
2E\	-cam
2G\	ec-
2E\	-cle-
2G\	-si-
=188	=188
2C/	-am,
.	.
2G\	ec-
2G\	-cle-
2E\	-si-
=189	=189
1E	-am.
.	.
.	.
2r	.
.	.
2D\	Con-
.	.
=190	=190
1E	-fi-
.	.
1F	-te-
.	.
=191	=191
1E	-or
.	.
2r	.
2D\	u-
=192	=192
2E\	-num
2E\	bap-
1F	-tis-
.	.
.	.
=193	=193
1E	-ma
.	.
2r	.
2A\	in
=194	=194
2G\	re-
2E\	-mis-
1A	-si-
.	.
=195	=195
2G\	-o-
2E\	-nem
1F	pec-
.	.
=196	=196
2E\	-ca-
2C/	.
1D	-to-
.	.
=197	=197
1E	-rum.
.	.
2r	.
2E\	Et
=198	=198
2G\	ex-
.	.
2G\	-spec-
.	.
1E	-to
.	.
.	.
=199	=199
0r	.
.	.
.	.
.	.
.	.
=200	=200
2r	.
2A\	re-
2G\	-sur-
[2A\	-rec-
=201	=201
4A\]	.
4G\	.
2E\	-ti-
1F	-o-
=202	=202
2E\	-nem
2A\	mor-
.	.
2G\	-tu-
[2c\	-o-
=203	=203
2c\]	.
4B\	.
4A\	.
2c\	.
2d\	.
.	.
=204	=204
1B	.
.	.
1A	-rum.
.	.
=205	=205
1r	.
.	.
.	.
1F	Et
.	.
.	.
=206	=206
1G	vi-
.	.
.	.
.	.
1E	-tam
.	.
=207	=207
2r	.
2A\	ven-
.	.
2G\	-tu-
[2c\	-ri
=208	=208
2c\]	.
.	.
2A\	se-
2B\	.
2c\	-cu-
=209	=209
2A\	-li.
2B-\	A-
.	.
2G\	.
2A\	.
.	.
=210	=210
2F\	.
2G\	.
.	.
2E\	.
2F\	.
.	.
=211	=211
2D\	.
2E\	.
.	.
2C/	.
2D\	.
.	.
=212	=212
2BB-/	.
.	.
2C/	.
2AA/	.
2BB-/	.
=213	=213
1GG	.
1AA	.
=214	=214
0EEl	-men.
==	==
*-	*-
!!!RDF**kern: l=long note in original notation	
!!!RDF**kern: i=editorial accidental	
!!!ENC: Jesse Rodin; Victoria Chang 2011/04/17	
!!!END: 2011/04/17/	
!!!EED: Jesse Rodin	
!!!EEV: 2011/04/17/	
!!attribution-level@Jos: 1 (secure, core group [checkmark])	
!!!ONB: Translated from MusicXML and edited on 2011/09/19/ by Craig Sapp	
!!muse2ps: T^@{OPR}^u^@{ONM}{. }@{OTL}^C^@{COM}^i2I150v90,90,90,120c122z18l2700t130	
